Numix-Circle/48x48/apps/scuolabook.svg

<?xml version="1.0" encoding="UTF-8" standalone="no"?>
<svg
   xmlns:dc="http://purl.org/dc/elements/1.1/"
   xmlns:cc="http://creativecommons.org/ns#"
   xmlns:rdf="http://www.w3.org/1999/02/22-rdf-syntax-ns#"
   xmlns:svg="http://www.w3.org/2000/svg"
   xmlns="http://www.w3.org/2000/svg"
   xmlns:xlink="http://www.w3.org/1999/xlink"
   xmlns:sodipodi="http://sodipodi.sourceforge.net/DTD/sodipodi-0.dtd"
   xmlns:inkscape="http://www.inkscape.org/namespaces/inkscape"
   width="48"
   viewBox="0 0 13.546667 13.546667"
   height="48"
   id="svg2"
   version="1.1"
   inkscape:version="0.91 r13725"
   sodipodi:docname="scuolabook.svg">
  <metadata
     id="metadata331">
    <rdf:RDF>
      <cc:Work
         rdf:about="">
        <dc:format>image/svg+xml</dc:format>
        <dc:type
           rdf:resource="http://purl.org/dc/dcmitype/StillImage" />
        <dc:title />
      </cc:Work>
    </rdf:RDF>
  </metadata>
  <sodipodi:namedview
     pagecolor="#ffffff"
     bordercolor="#666666"
     borderopacity="1"
     objecttolerance="10"
     gridtolerance="10"
     guidetolerance="10"
     inkscape:pageopacity="0"
     inkscape:pageshadow="2"
     inkscape:window-width="1920"
     inkscape:window-height="1052"
     id="namedview329"
     showgrid="true"
     inkscape:zoom="9.0386292"
     inkscape:cx="7.6732715"
     inkscape:cy="26.407218"
     inkscape:window-x="0"
     inkscape:window-y="28"
     inkscape:window-maximized="1"
     inkscape:current-layer="layer2"
     showguides="true"
     inkscape:guide-bbox="true">
    <inkscape:grid
       type="xygrid"
       id="grid3308" />
  </sodipodi:namedview>
  <defs
     id="defs4">
    <linearGradient
       inkscape:collect="always"
       xlink:href="#linearGradient4460-85"
       id="linearGradient4033"
       x1="-27"
       y1="13"
       x2="-24"
       y2="13"
       gradientUnits="userSpaceOnUse" />
    <linearGradient
       id="linearGradient4460-85">
      <stop
         id="stop7-33"
         style="stop-color:#fb2a2a;stop-opacity:1;"
         offset="0" />
      <stop
         id="stop9-80"
         style="stop-color:#d80202;stop-opacity:1;"
         offset="1" />
    </linearGradient>
  </defs>
  <g
     inkscape:groupmode="layer"
     id="layer1"
     inkscape:label="Shadow"
     sodipodi:insensitive="true">
    <path
       style="opacity:0.05;fill:#000000;fill-opacity:1;stroke:none"
       d="M 25,2 C 12.297451,2 2,12.297451 2,25 2,31.367153 4.6007106,37.116628 8.78125,41.28125 12.865755,44.99361 18.29568,47.25 24.25,47.25 c 12.702549,0 23,-10.297451 23,-23 0,-5.95432 -2.25639,-11.384245 -5.96875,-15.46875 C 37.116628,4.6007105 31.367153,2 25,2 z M 41.28125,8.78125 C 45.135604,12.894061 47.5,18.418655 47.5,24.5 c 0,12.702549 -10.297451,23 -23,23 C 18.418655,47.5 12.894061,45.135604 8.78125,41.28125 12.940939,45.4251 18.664604,48 25,48 37.702549,48 48,37.702549 48,25 48,18.664604 45.4251,12.940939 41.28125,8.78125 z"
       transform="scale(0.28222223,0.28222223)"
       id="path3978"
       inkscape:connector-curvature="0" />
    <path
       style="opacity:0.1;fill:#000000;fill-opacity:1;stroke:none"
       d="M 41.28125,8.78125 C 44.99361,12.865755 47.25,18.29568 47.25,24.25 c 0,12.702549 -10.297451,23 -23,23 -5.95432,0 -11.384245,-2.25639 -15.46875,-5.96875 C 12.894061,45.135604 18.418655,47.5 24.5,47.5 c 12.702549,0 23,-10.297451 23,-23 0,-6.081345 -2.364396,-11.605939 -6.21875,-15.71875 z"
       transform="scale(0.28222223,0.28222223)"
       id="path3976"
       inkscape:connector-curvature="0" />
    <path
       transform="matrix(4.3274074,0,0,3.2455556,117.19278,-35.348334)"
       d="m -24,13 a 1.5,2 0 1 1 -3,0 1.5,2 0 1 1 3,0 z"
       sodipodi:ry="2"
       sodipodi:rx="1.5"
       sodipodi:cy="13"
       sodipodi:cx="-25.5"
       id="path3952"
       style="opacity:0.2;fill:#000000;fill-opacity:1;stroke:none"
       sodipodi:type="arc" />
  </g>
  <g
     inkscape:groupmode="layer"
     id="layer2"
     inkscape:label="Base">
    <path
       sodipodi:type="arc"
       style="fill:url(#linearGradient4033);fill-opacity:1;stroke:none"
       id="path3942"
       sodipodi:cx="-25.5"
       sodipodi:cy="13"
       sodipodi:rx="1.5"
       sodipodi:ry="2"
       d="m -24,13 a 1.5,2 0 1 1 -3,0 1.5,2 0 1 1 3,0 z"
       transform="matrix(0,4.3274075,3.2455556,0,-35.418894,117.12222)" />
    <path
       style="opacity:0.1;fill:#000000;fill-opacity:1;stroke:none"
       d="M 40.03125 7.53125 C 43.74361 11.615755 46 17.04568 46 23 C 46 35.702549 35.702549 46 23 46 C 17.04568 46 11.615755 43.74361 7.53125 40.03125 C 11.709416 44.322508 17.537578 47 24 47 C 36.702549 47 47 36.702549 47 24 C 47 17.537578 44.322508 11.709416 40.03125 7.53125 z "
       id="path4027"
       transform="scale(0.28222223,0.28222223)" />
  </g>
  <g
     inkscape:groupmode="layer"
     id="layer3"
     inkscape:label="Symbol">
    <path
       sodipodi:nodetypes="ccssssccssssc"
       inkscape:connector-curvature="0"
       id="path4461"
       d="m 3.9511112,6.7733335 c -0.5644445,0 -0.5644445,0.5644444 0,0.5644444 l 5.7061807,0 c 0.277,0 0.5027081,0.2257084 0.5027081,0.5027084 l 0,1.8168056 C 10.16,9.9342919 9.9342919,10.16 9.6572919,10.16 l -5.7061807,0 c -0.5644445,0 -0.5644445,0.564445 0,0.564445 l 6.2706248,0 c 0.277,0 0.502709,-0.225709 0.502709,-0.502709 l 0,-2.9456942 c 0,-0.277 -0.225709,-0.5027083 -0.502709,-0.5027083 z"
       style="opacity:0.1;fill:#000000;fill-opacity:1;stroke:none" />
    <rect
       ry="0.5"
       rx="0.5"
       y="7.9022226"
       x="4.5155559"
       height="1.6933334"
       width="5.0799999"
       id="rect4463"
       style="opacity:0.1;fill:#000000;fill-opacity:1;stroke:none" />
    <path
       sodipodi:nodetypes="ccssssccssssc"
       inkscape:connector-curvature="0"
       id="path4465"
       d="m 5.0800001,3.3866667 c -0.5644445,0 -0.5644445,0.5644444 0,0.5644444 l 4.5772918,0 c 0.277,0 0.5027081,0.2257084 0.5027081,0.5027084 l 0,1.2523612 c 0,0.277 -0.2257082,0.5027083 -0.5027082,0.5027083 l -4.5772918,0 c -0.5644445,0 -0.5644445,0.5644445 0,0.5644445 l 5.141736,0 c 0.277,0 0.502708,-0.2257084 0.502708,-0.5027084 l 0,-2.3812501 c 0,-0.277 -0.225708,-0.5027083 -0.502708,-0.5027083 z"
       style="opacity:0.1;fill:#000000;fill-opacity:1;stroke:none" />
    <rect
       ry="0.5"
       rx="0.5"
       y="4.5155554"
       x="4.5155559"
       height="1.128889"
       width="5.0799999"
       id="rect4467"
       style="opacity:0.1;fill:#000000;fill-opacity:1;stroke:none" />
    <path
       style="fill:#f9f9f9;fill-opacity:1;stroke:none"
       d="m 13,23 c -2,0 -2,2 0,2 l 20.21875,0 C 34.200246,25 35,25.799754 35,26.78125 l 0,6.4375 C 35,34.200246 34.200246,35 33.21875,35 L 13,35 c -2,0 -2,2 0,2 l 22.21875,0 C 36.200246,37 37,36.200246 37,35.21875 l 0,-10.4375 C 37,23.799754 36.200246,23 35.21875,23 z"
       transform="scale(0.28222223,0.28222223)"
       id="rect4441"
       inkscape:connector-curvature="0"
       sodipodi:nodetypes="ccssssccssssc" />
    <rect
       style="fill:#f9f9f9;fill-opacity:1;stroke:none"
       id="rect4445"
       width="5.0799999"
       height="1.6933334"
       x="4.2333336"
       y="7.6200004"
       rx="0.5"
       ry="0.5" />
    <path
       style="fill:#f9f9f9;fill-opacity:1;stroke:none"
       d="m 4.7977779,3.1044445 c -0.5644445,0 -0.5644445,0.5644444 0,0.5644444 l 4.5772918,0 c 0.277,0 0.5027083,0.2257084 0.5027083,0.5027084 l -10e-8,1.2523612 c 0,0.277 -0.2257083,0.5027083 -0.5027083,0.5027083 l -4.5772918,0 c -0.5644445,0 -0.5644445,0.5644445 0,0.5644445 l 5.1417362,0 c 0.277,0 0.502708,-0.2257084 0.502708,-0.5027084 l 0,-2.3812501 c 0,-0.277 -0.225708,-0.5027083 -0.5027079,-0.5027083 z"
       id="rect4451"
       inkscape:connector-curvature="0"
       sodipodi:nodetypes="ccssssccssssc" />
    <rect
       style="fill:#f9f9f9;fill-opacity:1;stroke:none"
       id="rect4455"
       width="5.0799999"
       height="1.128889"
       x="4.2333336"
       y="4.2333331"
       rx="0.5"
       ry="0.5" />
  </g>
</svg>

<svg xmlns="http://www.w3.org/2000/svg" width="48" viewBox="0 0 13.546667 13.546667" height="48"><defs><linearGradient id="linearGradient4033" x1="-27" x2="-24" gradientUnits="userSpaceOnUse"><stop stop-color="#fb2a2a" stop-opacity="1"/><stop offset="1" stop-color="#d80202" stop-opacity="1"/></linearGradient></defs><g><path d="m 25 2 c -12.703 0 -23 10.297 -23 23 0 6.367 2.601 12.12 6.781 16.281 4.085 3.712 9.514 5.969 15.469 5.969 c 12.703 0 23 -10.297 23 -23 0 -5.954 -2.256 -11.384 -5.969 -15.469 c -4.165 -4.181 -9.914 -6.781 -16.281 -6.781 z m 16.281 6.781 c 3.854 4.113 6.219 9.637 6.219 15.719 c 0 12.703 -10.297 23 -23 23 c -6.081 0 -11.606 -2.364 -15.719 -6.219 4.16 4.144 9.883 6.719 16.219 6.719 12.703 0 23 -10.297 23 -23 0 -6.335 -2.575 -12.06 -6.719 -16.219 z" transform="scale(0.28222223,0.28222223)" opacity="0.05" fill="#000" stroke="none" fill-opacity="1"/><path d="m 41.28 8.781 c 3.712 4.085 5.969 9.514 5.969 15.469 c 0 12.703 -10.297 23 -23 23 -5.954 0 -11.384 -2.256 -15.469 -5.969 c 4.113 3.854 9.637 6.219 15.719 6.219 c 12.703 0 23 -10.297 23 -23 0 -6.081 -2.364 -11.606 -6.219 -15.719 z" transform="scale(0.28222223,0.28222223)" opacity="0.1" fill="#000" stroke="none" fill-opacity="1"/><path transform="matrix(4.3274074,0,0,3.2455556,117.19278,-35.348334)" d="m -24 13 a 1.5 2 0 1 1 -3 0 1.5 2 0 1 1 3 0 z" opacity="0.2" fill="#000" stroke="none" fill-opacity="1"/></g><g><path d="m -24 13 a 1.5 2 0 1 1 -3 0 1.5 2 0 1 1 3 0 z" transform="matrix(0,4.3274075,3.2455556,0,-35.418894,117.12222)" fill="url(#linearGradient4033)" stroke="none" fill-opacity="1"/><path d="m 40.03 7.531 c 3.712 4.085 5.969 9.514 5.969 15.469 c 0 12.703 -10.297 23 -23 23 c -5.954 0 -11.384 -2.256 -15.469 -5.969 c 4.178 4.291 10.01 6.969 16.469 6.969 c 12.703 0 23 -10.297 23 -23 c 0 -6.462 -2.677 -12.291 -6.969 -16.469 z" transform="scale(0.28222223,0.28222223)" opacity="0.1" fill="#000" stroke="none" fill-opacity="1"/></g><g><path d="m 3.951 6.773 c -0.564 0 -0.564 0.564 0 0.564 l 5.706 0 c 0.277 0 0.503 0.226 0.503 0.503 l 0 1.817 c 0 0.277 -0.226 0.503 -0.503 0.503 l -5.706 0 c -0.564 0 -0.564 0.564 0 0.564 l 6.271 0 c 0.277 0 0.503 -0.226 0.503 -0.503 l 0 -2.946 c 0 -0.277 -0.226 -0.503 -0.503 -0.503 z" opacity="0.1" fill="#000" stroke="none" fill-opacity="1"/><rect rx="0.5" y="7.902" x="4.516" height="1.693" width="5.08" opacity="0.1" fill="#000" stroke="none" fill-opacity="1"/><path d="m 5.08 3.387 c -0.564 0 -0.564 0.564 0 0.564 l 4.577 0 c 0.277 0 0.503 0.226 0.503 0.503 l 0 1.252 c 0 0.277 -0.226 0.503 -0.503 0.503 l -4.577 0 c -0.564 0 -0.564 0.564 0 0.564 l 5.142 0 c 0.277 0 0.503 -0.226 0.503 -0.503 l 0 -2.381 c 0 -0.277 -0.226 -0.503 -0.503 -0.503 z" opacity="0.1" fill="#000" stroke="none" fill-opacity="1"/><rect rx="0.5" y="4.516" x="4.516" height="1.129" width="5.08" opacity="0.1" fill="#000" stroke="none" fill-opacity="1"/><path d="m 13 23 c -2 0 -2 2 0 2 l 20.22 0 c 0.981 0 1.781 0.8 1.781 1.781 l 0 6.438 c 0 0.981 -0.8 1.781 -1.781 1.781 l -20.22 0 c -2 0 -2 2 0 2 l 22.22 0 c 0.981 0 1.781 -0.8 1.781 -1.781 l 0 -10.438 c 0 -0.981 -0.8 -1.781 -1.781 -1.781 z" transform="scale(0.28222223,0.28222223)" fill="#f9f9f9" stroke="none" fill-opacity="1"/><rect width="5.08" height="1.693" x="4.233" y="7.62" rx="0.5" fill="#f9f9f9" stroke="none" fill-opacity="1"/><path d="m 4.798 3.104 c -0.564 0 -0.564 0.564 0 0.564 l 4.577 0 c 0.277 0 0.503 0.226 0.503 0.503 l 0 1.252 c 0 0.277 -0.226 0.503 -0.503 0.503 l -4.577 0 c -0.564 0 -0.564 0.564 0 0.564 l 5.142 0 c 0.277 0 0.503 -0.226 0.503 -0.503 l 0 -2.381 c 0 -0.277 -0.226 -0.503 -0.503 -0.503 z" fill="#f9f9f9" stroke="none" fill-opacity="1"/><rect width="5.08" height="1.129" x="4.233" y="4.233" rx="0.5" fill="#f9f9f9" stroke="none" fill-opacity="1"/></g></svg>
